X: 40409
T: Tom Mason's
R: waltz
M: 3/4
K: Dmajor
|:"D"A2|"D"F3Ad2|"D"f4A2|"g"Bg3B2|"A7"A4G2|"Bm"F3ED2|"D"A2d2f2|"D"a3gf2|"A7"e4ag|
"D"f3ga2|"Bm"d3ef2|"G"gB3e2|"A7"c4A2|"D"FA3d2|"G"GB3e2|"A7"gA3c2|"D"d4:|
|:"D"a3gf2|"Bm"f3ed2|"G"bd3a2|"A7"b6|"F#m"a3gf2|"Bm"f3ed2|"Bm"(3ded c2d2|"A7"e4A2|
"D"F3Ad2|"Bm"d2e2f2|"Em"ga3b2|"A7"!fermata!a4A2|"D"fA3d2|"G"GB3e2|"A7"gA3c2|"D"d4z2:|

